X:019
T:Carndonagh* (h)
B:NFID.081b  ("untitled highland")
019carn
S:JD
L:1/8
M:C
R:hornpipe
Q:280
K:D
B2BG A2AB|defd edBG|B2Bd A2Ag|fa (3efe d2dc|
B2Bd A2AB|defd edBG|B2Bd A2Ag|faec d2dg||
faaf gabg|afdf edBg|faaf gabg|afef d2dg|
faaf gabg|afdf edBG|B2Bd A2Ag|faef d2Dc||

%%%

